X:1
T:Cowboy's Dream
M:C|
K:D
A2 | "D" def a2 fed|"A" cdec "D"d2 A2|"D" def a2 fed|"A"cA-A2 A4|
 "D" def a2 fed|"A" cdec "D"d2 A2|"G"BABc dBAG | "A"F2 E2 "D" D2:|
|:AG | "D"F2D2 DEFD | "A"EA,-A,2 A,4 | "D"DEFG A2 Bc | defe "A"dBAG | 
 "D"F2D2 DEFD | "A"EA,-A,2 A,4 | "D"DEFG ABAG | "A"F2 E2 "D" D2:|
